icons/BitBucket-Dark.svg

<svg width="256" height="256" viewBox="0 0 256 256" fill="none" xmlns="http://www.w3.org/2000/svg">
<g clip-path="url(#clip0_33_568)">
<path d="M196 0H60C26.8629 0 0 26.8629 0 60V196C0 229.137 26.8629 256 60 256H196C229.137 256 256 229.137 256 196V60C256 26.8629 229.137 0 196 0Z" fill="#242938"/>
<path d="M46.2923 52.0292C45.4801 52.0189 44.6754 52.1832 43.9347 52.5107C43.1941 52.8382 42.5355 53.3208 42.0052 53.9247C41.4748 54.5286 41.0856 55.2392 40.8649 56.0065C40.6442 56.7738 40.5973 57.5792 40.7275 58.3662L64.3512 199.125C64.6454 200.848 65.5487 202.413 66.9023 203.547C68.2558 204.681 69.9732 205.31 71.7526 205.325H185.084C186.418 205.341 187.714 204.887 188.735 204.045C189.756 203.203 190.435 202.029 190.649 200.736L214.273 58.3935C214.403 57.6065 214.356 56.8012 214.135 56.034C213.914 55.2669 213.525 54.5565 212.994 53.9527C212.464 53.3489 211.805 52.8664 211.065 52.5391C210.324 52.2117 209.52 52.0475 208.707 52.0578L46.2923 52.0292ZM145.767 153.761H109.594L99.7999 103.537H154.532L145.767 153.761Z" fill="#2684FF"/>
<path d="M206.616 103.467H154.431L145.673 153.651H109.529L66.852 203.371C68.2047 204.519 69.9292 205.157 71.7173 205.172H184.987C186.32 205.188 187.614 204.735 188.635 203.893C189.655 203.052 190.334 201.879 190.547 200.587L206.616 103.467Z" fill="url(#paint0_linear_33_568)"/>
</g>
<defs>
<linearGradient id="paint0_linear_33_568" x1="39228.9" y1="3347.5" x2="23538.7" y2="23660.6" gradientUnits="userSpaceOnUse">
<stop offset="0.18" stop-color="#0052CC"/>
<stop offset="1" stop-color="#2684FF"/>
</linearGradient>
<clipPath id="clip0_33_568">
<rect width="256" height="256" fill="white"/>
</clipPath>
</defs>
</svg>

<svg xmlns="http://www.w3.org/2000/svg" width="256" height="256" fill="none" viewBox="0 0 256 256"><g clip-path="url(#a)"><path fill="#242938" d="M196 0H60A60 60 0 0 0 0 60v136a60 60 0 0 0 60 60h136a60 60 0 0 0 60-60V60a60 60 0 0 0-60-60"/><path fill="#2684FF" d="M46.3 52.03a5.7 5.7 0 0 0-4.3 1.9 5.4 5.4 0 0 0-1.27 4.44l23.62 140.76a7.4 7.4 0 0 0 2.55 4.42 7.7 7.7 0 0 0 4.85 1.77h113.33a5.6 5.6 0 0 0 3.66-1.28 5.4 5.4 0 0 0 1.9-3.3l23.63-142.35a5.4 5.4 0 0 0-1.28-4.44 5.6 5.6 0 0 0-4.28-1.9zm99.47 101.73h-36.18l-9.79-50.22h54.73z"/><path fill="url(#b)" d="M206.62 103.47h-52.19l-8.76 50.18h-36.14l-42.68 49.72a7.6 7.6 0 0 0 4.87 1.8h113.27a5.6 5.6 0 0 0 3.64-1.28 5.4 5.4 0 0 0 1.92-3.3z"/></g><defs><linearGradient id="b" x1="39228.9" x2="23538.7" y1="3347.5" y2="23660.6" gradientUnits="userSpaceOnUse"><stop offset=".18" stop-color="#0052CC"/><stop offset="1" stop-color="#2684FF"/></linearGradient><clipPath id="a"><path fill="#fff" d="M0 0h256v256H0z"/></clipPath></defs></svg>
